svg/box-f.svg

<svg xmlns="http://www.w3.org/2000/svg" viewBox="0 0 64 48" enable-background="new 0 0 64 48"><style type="text/css">.st0{fill:#333333;}</style><title>box-f</title><desc>Created with Sketch.</desc><path class="st0" d="M32 28c-5.2 0-9.7-3.3-11.3-8h-20.7v26c0 1.1.9 2 2 2h60c1.1 0 2-.9 2-2v-26h-20.7c-1.6 4.7-6.1 8-11.3 8zM61 0h-58c-1.7 0-3 1.3-3 3v13h64v-13c0-1.7-1.3-3-3-3z"/></svg>

<?xml version="1.0" encoding="utf-8"?>
<!-- Generator: Adobe Illustrator 21.0.0, SVG Export Plug-In . SVG Version: 6.00 Build 0)  -->
<svg version="1.1" id="Layer_1" xmlns="http://www.w3.org/2000/svg" xmlns:xlink="http://www.w3.org/1999/xlink" x="0px" y="0px"
	 viewBox="0 0 64 48" style="enable-background:new 0 0 64 48;" xml:space="preserve">
<style type="text/css">
	.st0{fill:#333333;}
</style>
<title>box-f</title>
<desc>Created with Sketch.</desc>
<g>
	<path class="st0" d="M32,28c-5.2,0-9.7-3.3-11.3-8H0v26c0,1.1,0.9,2,2,2h60c1.1,0,2-0.9,2-2V20H43.3C41.7,24.7,37.2,28,32,28z"/>
	<path class="st0" d="M61,0H3C1.3,0,0,1.3,0,3v13h64V3C64,1.3,62.7,0,61,0z"/>
</g>
</svg>
